launcher/android/assets/skins/day/svg/check_off.svg

<svg enable-background="new 0 0 51.00 51.00" height="51" viewBox="0 0 51 51" width="51" xmlns="http://www.w3.org/2000/svg"><path d="m5.5.5h40c2.7614 0 5 2.23857 5 4.99998v40.00002c0 2.7614-2.2386 5-5 5h-40c-2.76143 0-5-2.2386-5-5v-40.00002c0-2.76141 2.23857-4.99998 5-4.99998z" fill="#fff" stroke="#000" stroke-linejoin="round"/></svg>

﻿<?xml version="1.0" encoding="utf-8"?>
<!DOCTYPE svg PUBLIC "-//W3C//DTD SVG 1.1//EN" "http://www.w3.org/Graphics/SVG/1.1/DTD/svg11.dtd">
<svg xmlns="http://www.w3.org/2000/svg" xmlns:xlink="http://www.w3.org/1999/xlink" version="1.1" baseProfile="full" width="51" height="51" viewBox="0 0 51.00 51.00" enable-background="new 0 0 51.00 51.00" xml:space="preserve">
	<path fill="#FFFFFF" fill-opacity="1" stroke-linejoin="round" stroke="#000000" stroke-opacity="1" d="M 5.5,0.5L 45.5,0.5C 48.2614,0.5 50.5,2.73857 50.5,5.49998L 50.5,45.5C 50.5,48.2614 48.2614,50.5 45.5,50.5L 5.5,50.5C 2.73857,50.5 0.5,48.2614 0.5,45.5L 0.5,5.49998C 0.5,2.73857 2.73857,0.5 5.5,0.5 Z "/>
</svg>
